img/aboutus/aboutus_block_three_114.svg

<svg width="114" height="99" viewBox="0 0 114 99" fill="none" xmlns="http://www.w3.org/2000/svg">
<circle cx="38.4" cy="60.6" r="38.0806" fill="#FF9900" stroke="#FF9900" stroke-width="0.63871"/>
<path fill-rule="evenodd" clip-rule="evenodd" d="M73.0064 30.0194C67.3624 30.0194 62.7871 34.5947 62.7871 40.2387C62.7871 45.8827 67.3624 50.4581 73.0064 50.4581C78.6504 50.4581 83.2258 45.8827 83.2258 40.2387C83.2258 34.5947 78.6504 30.0194 73.0064 30.0194ZM61.5096 40.2387C61.5096 33.8892 66.6569 28.7419 73.0064 28.7419C79.3559 28.7419 84.5032 33.8892 84.5032 40.2387C84.5032 46.5882 79.3559 51.7355 73.0064 51.7355C66.6569 51.7355 61.5096 46.5882 61.5096 40.2387Z" fill="black"/>
<path fill-rule="evenodd" clip-rule="evenodd" d="M73.3258 1.28078C71.5708 1.28078 69.8876 1.97797 68.6466 3.21896C67.4056 4.45996 66.7085 6.14311 66.7085 7.89815V8.51506L66.7085 8.51761C66.7033 9.81023 66.3203 11.0731 65.6066 12.1508C64.8928 13.2286 63.8796 14.0741 62.6915 14.5833C62.6117 14.6174 62.5259 14.6351 62.4392 14.6351H62.2803C61.1023 15.1259 59.8065 15.2665 58.5488 15.0385C57.2457 14.8022 56.0432 14.181 55.0965 13.2549L55.0915 13.25L54.8738 13.0322C54.2592 12.417 53.5291 11.9286 52.7258 11.5956C51.9224 11.2626 51.0613 11.0912 50.1917 11.0912C49.3221 11.0912 48.461 11.2626 47.6577 11.5956C46.8543 11.9286 46.1245 12.4167 45.5099 13.032L45.5094 13.0325C44.8942 13.6471 44.4061 14.3769 44.0731 15.1802C43.74 15.9835 43.5686 16.8446 43.5686 17.7143C43.5686 18.5839 43.74 19.445 44.0731 20.2483C44.4061 21.0517 44.8942 21.7815 45.5094 22.3961L45.7324 22.619C46.6585 23.5658 47.2797 24.7682 47.5159 26.0713C47.751 27.3678 47.5943 28.7047 47.0661 29.9115C46.6057 31.1517 45.7846 32.2259 44.7083 32.9956C43.6266 33.7694 42.3371 34.1997 41.0075 34.2308L40.9925 34.231H40.6659C38.9109 34.231 37.2277 34.9282 35.9867 36.1692C34.7457 37.4102 34.0485 39.0933 34.0485 40.8484C34.0485 42.6034 34.7457 44.2866 35.9867 45.5276C37.2277 46.7686 38.9109 47.4657 40.6659 47.4657H41.2854C42.578 47.4709 43.8409 47.8539 44.9186 48.5676C45.9954 49.2807 46.8404 50.2929 47.3497 51.4796C47.8833 52.6904 48.0423 54.0332 47.8063 55.3351C47.57 56.6382 46.9488 57.8407 46.0227 58.7874L46.0177 58.7924L45.8 59.0101C45.1847 59.6247 44.6964 60.3548 44.3634 61.1581C44.0304 61.9614 43.859 62.8225 43.859 63.6922C43.859 64.5618 44.0304 65.4229 44.3634 66.2262C44.6964 67.0296 45.1845 67.7594 45.7997 68.374L45.8002 68.3745C46.4148 68.9897 47.1446 69.4778 47.948 69.8108C48.7513 70.1438 49.6124 70.3153 50.482 70.3153C51.3517 70.3153 52.2127 70.1438 53.0161 69.8108C53.8194 69.4778 54.5492 68.9897 55.1638 68.3745L55.3868 68.1515C56.3335 67.2254 57.536 66.6042 58.8391 66.368C60.1355 66.1329 61.4725 66.2896 62.6792 66.8178C63.9194 67.2782 64.9936 68.0993 65.7634 69.1756C66.5371 70.2573 66.9675 71.5468 66.9986 72.8764L66.9988 72.8914V73.218C66.9988 74.973 67.696 76.6562 68.937 77.8972C70.1779 79.1382 71.8611 79.8353 73.6161 79.8353C75.3712 79.8353 77.0543 79.1382 78.2953 77.8972C79.5363 76.6562 80.2335 74.973 80.2335 73.218V72.6011L80.2335 72.5985C80.2387 71.3059 80.6217 70.043 81.3354 68.9653C82.0484 67.8886 83.0605 67.0437 84.2471 66.5343C85.4579 66.0006 86.8008 65.8415 88.1029 66.0776C89.406 66.3139 90.6084 66.9351 91.5551 67.8612L91.5602 67.8661L91.7779 68.0839C92.3925 68.6992 93.1225 69.1875 93.9259 69.5205C94.7292 69.8535 95.5903 70.0249 96.4599 70.0249C97.3296 70.0249 98.1907 69.8535 98.994 69.5205C99.7973 69.1875 100.527 68.6994 101.142 68.0842L101.142 68.0836C101.757 67.4691 102.246 66.7393 102.579 65.9359C102.912 65.1326 103.083 64.2715 103.083 63.4019C103.083 62.5322 102.912 61.6711 102.579 60.8678C102.246 60.0645 101.757 59.3346 101.142 58.7201L100.919 58.4971C99.9932 57.5504 99.372 56.3479 99.1357 55.0448C98.8996 53.7427 99.0587 52.3998 99.5924 51.189C100.102 50.0024 100.947 48.9904 102.023 48.2773C103.101 47.5636 104.364 47.1806 105.657 47.1754L105.659 47.1754L105.986 47.1754C107.741 47.1754 109.424 46.4782 110.665 45.2372C111.906 43.9963 112.603 42.3131 112.603 40.5581C112.603 38.803 111.906 37.1199 110.665 35.8789C109.424 34.6379 107.741 33.9407 105.986 33.9407H105.369L105.366 33.9407C104.074 33.9355 102.811 33.5525 101.733 32.8388C100.655 32.1251 99.8098 31.1118 99.3006 29.9237C99.2664 29.844 99.2488 29.7582 99.2488 29.6714V29.5126C98.758 28.3345 98.6174 27.0387 98.8454 25.781C99.0817 24.4779 99.7029 23.2755 100.629 22.3288L100.634 22.3237L100.852 22.106C101.467 21.4914 101.955 20.7613 102.288 19.958C102.621 19.1547 102.793 18.2936 102.793 17.424C102.793 16.5543 102.621 15.6932 102.288 14.8899C101.955 14.0866 101.467 13.3567 100.852 12.7422L100.851 12.7417C100.237 12.1264 99.507 11.6383 98.7037 11.3053C97.9003 10.9723 97.0392 10.8009 96.1696 10.8009C95.3 10.8009 94.4389 10.9723 93.6356 11.3053C92.8322 11.6383 92.1024 12.1264 91.4878 12.7417L91.2649 12.9646C90.3181 13.8907 89.1157 14.5119 87.8126 14.7482C86.5106 14.9842 85.1678 14.8252 83.9571 14.2916C82.7703 13.7823 81.7582 12.9373 81.0451 11.8605C80.3314 10.7828 79.9484 9.51992 79.9432 8.2273L79.9432 8.22475V7.89815C79.9432 6.14311 79.246 4.45996 78.005 3.21896C76.764 1.97797 75.0809 1.28078 73.3258 1.28078ZM67.741 2.31331C69.2222 0.832124 71.2311 0 73.3258 0C75.4205 0 77.4295 0.832124 78.9107 2.31331C80.3918 3.7945 81.224 5.80343 81.224 7.89815L81.224 8.22219C81.224 8.22259 81.224 8.22299 81.224 8.22339C81.2284 9.26581 81.5373 10.2842 82.1129 11.1534C82.6887 12.0228 83.5062 12.7049 84.4647 13.1157L84.471 13.1185C85.4485 13.5498 86.5328 13.6786 87.5841 13.4879C88.6343 13.2975 89.6034 12.7972 90.3668 12.0514C90.3676 12.0506 90.3684 12.0498 90.3692 12.049L90.5817 11.8365C90.5818 11.8364 90.5816 11.8366 90.5817 11.8365C91.3151 11.1023 92.1864 10.5196 93.1451 10.1222C94.1039 9.72468 95.1317 9.5201 96.1696 9.5201C97.2076 9.5201 98.2353 9.72468 99.1941 10.1222C100.153 10.5195 101.024 11.1019 101.757 11.836C102.491 12.5695 103.074 13.4406 103.471 14.3994C103.869 15.3583 104.073 16.386 104.073 17.424C104.073 18.4619 103.869 19.4897 103.471 20.4485C103.074 21.4073 102.491 22.2784 101.757 23.0119L101.545 23.2244C101.544 23.2252 101.543 23.226 101.542 23.2269C100.796 23.9903 100.296 24.9594 100.106 26.0095C99.915 27.0608 100.044 28.1451 100.475 29.1225C100.511 29.204 100.53 29.2921 100.53 29.3811V29.5361C100.945 30.4442 101.606 31.2187 102.44 31.771C103.309 32.3465 104.328 32.6555 105.37 32.6599H105.986C108.08 32.6599 110.089 33.492 111.571 34.9732C113.052 36.4544 113.884 38.4633 113.884 40.5581C113.884 42.6528 113.052 44.6617 111.571 46.1429C110.089 47.6241 108.08 48.4562 105.986 48.4562L105.662 48.4562C105.661 48.4562 105.661 48.4562 105.661 48.4562C104.618 48.4606 103.6 48.7696 102.731 49.3452C101.861 49.921 101.179 50.7385 100.768 51.697L100.765 51.7033C100.334 52.6807 100.205 53.765 100.396 54.8163C100.586 55.8664 101.087 56.8355 101.832 57.5988C101.833 57.5997 101.834 57.6006 101.835 57.6015L102.047 57.8139C102.047 57.814 102.047 57.8138 102.047 57.8139C102.782 58.5474 103.364 59.4186 103.762 60.3773C104.159 61.3362 104.364 62.3639 104.364 63.4019C104.364 64.4398 104.159 65.4676 103.762 66.4264C103.364 67.3851 102.782 68.2561 102.048 68.9895C101.314 69.7238 100.443 70.3062 99.4845 70.7037C98.5256 71.1011 97.4979 71.3057 96.4599 71.3057C95.422 71.3057 94.3942 71.1011 93.4354 70.7037C92.4767 70.3062 91.6057 69.7238 90.8722 68.9895C90.8722 68.9895 90.8723 68.9896 90.8722 68.9895L90.6595 68.7768C90.6587 68.7759 90.6578 68.7751 90.6569 68.7742C89.8935 68.0285 88.9245 67.5283 87.8744 67.3379C86.8231 67.1472 85.7388 67.2759 84.7613 67.7073L84.7551 67.7101C83.7965 68.1209 82.9791 68.803 82.4032 69.6725C81.8277 70.5416 81.5187 71.56 81.5143 72.6024C81.5143 72.6028 81.5143 72.6032 81.5143 72.6036L81.5143 73.218C81.5143 75.3127 80.6822 77.3216 79.201 78.8028C77.7198 80.284 75.7109 81.1161 73.6161 81.1161C71.5214 81.1161 69.5125 80.284 68.0313 78.8028C66.5501 77.3216 65.718 75.3127 65.718 73.218V72.899C65.6915 71.829 65.3444 70.7914 64.7217 69.9206C64.0975 69.0479 63.2252 68.3832 62.2181 68.0128C62.2113 68.0103 62.2046 68.0077 62.1978 68.0049C62.1921 68.0026 62.1863 68.0002 62.1806 67.9976C61.2032 67.5662 60.1189 67.4376 59.0676 67.6282C58.0174 67.8186 57.0483 68.3189 56.2849 69.0646C56.2841 69.0655 56.2833 69.0663 56.2824 69.0671L56.07 69.2796C55.3364 70.014 54.4654 70.5965 53.5065 70.994C52.5477 71.3914 51.52 71.596 50.482 71.596C49.4441 71.596 48.4163 71.3914 47.4575 70.994C46.4987 70.5965 45.6276 70.014 44.8941 69.2796C44.16 68.5462 43.5776 67.6753 43.1802 66.7167C42.7828 65.7579 42.5782 64.7301 42.5782 63.6922C42.5782 62.6542 42.7828 61.6265 43.1802 60.6676C43.5776 59.7089 44.1601 58.838 44.8943 58.1045C44.8944 58.1044 44.8943 58.1046 44.8943 58.1045L45.1071 57.8918C45.1079 57.891 45.1087 57.8901 45.1095 57.8893C45.8553 57.1259 46.3556 56.1568 46.546 55.1066C46.7366 54.0553 46.608 52.971 46.1766 51.9936L46.1738 51.9873C45.763 51.0288 45.0809 50.2113 44.2114 49.6355C43.3423 49.0599 42.3239 48.7509 41.2815 48.7465C41.2811 48.7465 41.2807 48.7465 41.2803 48.7465L40.6659 48.7465C38.5712 48.7465 36.5623 47.9144 35.0811 46.4332C33.5999 44.952 32.7678 42.9431 32.7678 40.8484C32.7678 38.7537 33.5999 36.7447 35.0811 35.2635C36.5623 33.7824 38.5712 32.9502 40.6659 32.9502H40.9848C42.0549 32.9237 43.0925 32.5767 43.9632 31.9539C44.836 31.3297 45.5007 30.4574 45.8711 29.4504C45.8757 29.4377 45.8808 29.4252 45.8862 29.4129C46.3176 28.4354 46.4463 27.3511 46.2557 26.2998C46.0653 25.2497 45.565 24.2805 44.8192 23.5171L44.6043 23.3022C43.8699 22.5687 43.2874 21.6976 42.8899 20.7388C42.4924 19.78 42.2879 18.7522 42.2879 17.7143C42.2879 16.6763 42.4924 15.6486 42.8899 14.6897C43.2874 13.7309 43.8699 12.8599 44.6043 12.1263C45.3377 11.3922 46.2086 10.8098 47.1672 10.4125C48.126 10.015 49.1538 9.81041 50.1917 9.81041C51.2297 9.81041 52.2574 10.015 53.2162 10.4125C54.1749 10.8099 55.0459 11.3924 55.7794 12.1266C55.7795 12.1267 55.7793 12.1265 55.7794 12.1266L55.9946 12.3418C56.758 13.0876 57.7271 13.5878 58.7773 13.7783C59.8286 13.9689 60.9128 13.8402 61.8903 13.4088C61.9718 13.3728 62.0598 13.3543 62.1489 13.3543H62.3039C63.2119 12.9391 63.9865 12.2776 64.5387 11.4437C65.1143 10.5745 65.4233 9.55612 65.4277 8.5137V7.89815C65.4277 5.80343 66.2598 3.7945 67.741 2.31331Z" fill="black"/>
</svg>

<svg width="114" height="99" fill="none" xmlns="http://www.w3.org/2000/svg"><circle cx="38.4" cy="60.6" r="38.081" fill="#F90" stroke="#F90" stroke-width=".639"/><path fill-rule="evenodd" clip-rule="evenodd" d="M73.006 30.02c-5.644 0-10.219 4.575-10.219 10.219 0 5.644 4.575 10.22 10.22 10.22 5.643 0 10.219-4.576 10.219-10.22 0-5.644-4.576-10.22-10.22-10.22ZM61.51 40.238c0-6.35 5.147-11.497 11.496-11.497 6.35 0 11.497 5.147 11.497 11.497s-5.147 11.497-11.497 11.497S61.51 46.588 61.51 40.239Z" fill="#000"/><path fill-rule="evenodd" clip-rule="evenodd" d="M73.326 1.28a6.617 6.617 0 0 0-6.617 6.618v.62a6.628 6.628 0 0 1-4.018 6.065.642.642 0 0 1-.252.052h-.159a6.628 6.628 0 0 1-7.184-1.38l-.004-.005-.218-.218a6.62 6.62 0 0 0-9.364 0 6.618 6.618 0 0 0 0 9.364l.222.223a6.628 6.628 0 0 1 1.334 7.293 6.627 6.627 0 0 1-6.059 4.319h-.341a6.617 6.617 0 0 0 0 13.235h.62a6.628 6.628 0 0 1 6.064 4.014 6.629 6.629 0 0 1-1.327 7.307l-.005.005-.218.218a6.619 6.619 0 0 0 0 9.364 6.618 6.618 0 0 0 9.364 0l.223-.222a6.627 6.627 0 0 1 7.292-1.334A6.628 6.628 0 0 1 67 72.876v.342a6.617 6.617 0 0 0 13.235 0v-.619a6.628 6.628 0 0 1 4.013-6.065 6.628 6.628 0 0 1 7.308 1.327l.005.005.218.218a6.618 6.618 0 0 0 9.364 0 6.621 6.621 0 0 0 1.941-4.682 6.617 6.617 0 0 0-1.941-4.682l-.223-.223a6.63 6.63 0 0 1-1.327-7.308 6.634 6.634 0 0 1 6.065-4.014h.329a6.617 6.617 0 0 0 0-13.234h-.62a6.63 6.63 0 0 1-6.065-4.017.64.64 0 0 1-.052-.253v-.158a6.629 6.629 0 0 1 1.38-7.184l.005-.005.218-.218a6.622 6.622 0 0 0 0-9.364h-.001A6.61 6.61 0 0 0 96.17 10.8a6.617 6.617 0 0 0-4.682 1.94l-.223.224a6.628 6.628 0 0 1-7.308 1.327 6.627 6.627 0 0 1-4.014-6.065v-.329a6.617 6.617 0 0 0-6.617-6.617ZM67.74 2.314a7.898 7.898 0 0 1 13.483 5.585v.325a5.347 5.347 0 0 0 3.24 4.893l.007.002a5.348 5.348 0 0 0 5.898-1.069l.213-.213A7.899 7.899 0 0 1 103.47 14.4a7.889 7.889 0 0 1 0 6.05 7.895 7.895 0 0 1-1.714 2.563l-.212.212a5.342 5.342 0 0 0-1.439 2.785 5.347 5.347 0 0 0 .369 3.113.64.64 0 0 1 .055.26v.154a5.344 5.344 0 0 0 4.84 3.124h.616a7.901 7.901 0 0 1 7.898 7.898 7.899 7.899 0 0 1-7.898 7.898h-.325a5.346 5.346 0 0 0-4.893 3.241l-.003.006a5.347 5.347 0 0 0 1.07 5.898l.212.213a7.899 7.899 0 0 1-2.563 12.89 7.9 7.9 0 0 1-8.612-1.714l-.213-.213-.002-.003a5.347 5.347 0 0 0-5.896-1.067l-.006.003a5.347 5.347 0 0 0-3.24 4.892v.616a7.898 7.898 0 1 1-15.797 0v-.319a5.348 5.348 0 0 0-3.537-4.901 5.347 5.347 0 0 0-5.899 1.07l-.212.212a7.898 7.898 0 0 1-11.176 0 7.898 7.898 0 0 1 0-11.175l.213-.213.002-.003a5.347 5.347 0 0 0 1.068-5.895l-.003-.007a5.347 5.347 0 0 0-4.892-3.24h-.616a7.898 7.898 0 1 1 0-15.797h.319a5.347 5.347 0 0 0 4.901-3.537 5.348 5.348 0 0 0-1.067-5.896l-.215-.215a7.898 7.898 0 0 1 0-11.176 7.897 7.897 0 0 1 11.175 0l.216.216a5.348 5.348 0 0 0 5.895 1.067.64.64 0 0 1 .259-.055h.155a5.347 5.347 0 0 0 3.124-4.84v-.616c0-2.095.832-4.103 2.313-5.585Z" fill="#000"/></svg>
